packages/astro-components-stencil/src/icons/device-hub.svg

<svg width="24" height="24" viewBox="0 0 24 24" fill="none" xmlns="http://www.w3.org/2000/svg">
<path d="M17 17L13 13V9.81999C14.35 9.32999 15.26 7.92999 14.93 6.35999C14.68 5.17999 13.7 4.23999 12.51 4.03999C10.63 3.72999 9 5.16999 9 6.99999C9 8.29999 9.84 9.39999 11 9.81999V13L7 17H4C3.45 17 3 17.45 3 18V21C3 21.55 3.45 22 4 22H7C7.55 22 8 21.55 8 21V18.95L12 14.75L16 18.95V21C16 21.55 16.45 22 17 22H20C20.55 22 21 21.55 21 21V18C21 17.45 20.55 17 20 17H17Z" fill="black"/>
</svg>

<svg xmlns="http://www.w3.org/2000/svg" viewBox="0 0 24 24"><g xmlns="http://www.w3.org/2000/svg" id="device-hub" fill-rule="nonzero">
            <path d="M17 17l-4-4V9.82c1.35-.49 2.26-1.89 1.93-3.46a3.013 3.013 0 00-2.42-2.32A3.001 3.001 0 009 7c0 1.3.84 2.4 2 2.82V13l-4 4H4c-.55 0-1 .45-1 1v3c0 .55.45 1 1 1h3c.55 0 1-.45 1-1v-2.05l4-4.2 4 4.2V21c0 .55.45 1 1 1h3c.55 0 1-.45 1-1v-3c0-.55-.45-1-1-1h-3z"/>
        </g></svg>
